build/security/FaceIDOutline.svg

<svg xmlns="http://www.w3.org/2000/svg" fill="none" viewBox="0 0 24 24" focusable="false"><path d="M0 0H24V24H0z"/><path fill="#74767B" fill-rule="evenodd" d="M4.89172 2.00012L5.691 2.00012C6.04998 2.00012 6.341 2.29114 6.341 2.65012C6.341 3.00911 6.04998 3.30012 5.691 3.30012L4.89172 3.30012C3.95284 3.30012 3.19172 4.06124 3.19172 5.00012L3.19172 5.69109C3.19172 6.05008 2.90071 6.34109 2.54172 6.34109C2.18274 6.34109 1.89172 6.05008 1.89172 5.69109L1.89172 5.00012C1.89172 3.34327 3.23487 2.00012 4.89172 2.00012ZM21.8917 5.6911C21.8917 6.05008 21.6007 6.34109 21.2417 6.34109C20.8827 6.34109 20.5917 6.05008 20.5917 5.6911L20.5917 5.00012C20.5917 4.06124 19.8306 3.30012 18.8917 3.30012L18.3089 3.30012C17.9499 3.30012 17.6589 3.00911 17.6589 2.65012C17.6589 2.29114 17.9499 2.00012 18.3089 2.00012L18.8917 2.00012C20.5486 2.00012 21.8917 3.34327 21.8917 5.00012L21.8917 5.6911ZM7.49997 8.00625C7.85895 8.00625 8.14997 8.29727 8.14997 8.65625L8.14997 10.4038C8.14997 10.7628 7.85895 11.0538 7.49997 11.0538C7.14098 11.0538 6.84997 10.7628 6.84997 10.4038L6.84997 8.65625C6.84997 8.29727 7.14098 8.00625 7.49997 8.00625ZM12.0002 8.00625C12.3591 8.00625 12.6502 8.29727 12.6502 8.65625L12.6502 11.8019C12.6502 13.0346 11.6601 14.0247 10.4273 14.0247L10.34 14.0247C9.98098 14.0247 9.68997 13.7337 9.68997 13.3747C9.68997 13.0157 9.98098 12.7247 10.34 12.7247L10.4273 12.7247C10.9421 12.7247 11.3502 12.3167 11.3502 11.8019L11.3502 8.65625C11.3502 8.29727 11.6412 8.00625 12.0002 8.00625ZM16.5 8.00625C16.859 8.00625 17.15 8.29727 17.15 8.65625L17.15 10.4038C17.15 10.7628 16.859 11.0538 16.5 11.0538C16.141 11.0538 15.85 10.7628 15.85 10.4038L15.85 8.65625C15.85 8.29727 16.141 8.00625 16.5 8.00625ZM15.9834 15.2597C16.1199 15.3876 16.1888 15.5606 16.1888 15.734C16.1888 15.8934 16.1306 16.053 16.013 16.1785C15.2114 17.0335 13.8101 17.5777 12.3874 17.6607C10.9471 17.7447 9.34723 17.3644 8.17631 16.1935C8.04939 16.0666 7.98593 15.9002 7.98593 15.7339C7.98593 15.5675 8.04939 15.4012 8.17631 15.2743C8.43015 15.0204 8.84171 15.0204 9.09555 15.2743C9.93433 16.1131 11.1305 16.4318 12.3117 16.3629C13.5102 16.293 14.5555 15.8323 15.0646 15.2893C15.3101 15.0274 15.7215 15.0142 15.9834 15.2597ZM1.89172 18.309C1.89172 17.95 2.18274 17.659 2.54172 17.659C2.90071 17.659 3.19172 17.95 3.19172 18.309L3.19172 19.0001C3.19172 19.939 3.95284 20.7001 4.89172 20.7001L5.691 20.7001C6.04998 20.7001 6.341 20.9911 6.341 21.3501C6.341 21.7091 6.04998 22.0001 5.691 22.0001L4.89172 22.0001C3.23487 22.0001 1.89172 20.657 1.89172 19.0001L1.89172 18.309ZM20.5917 18.309C20.5917 17.95 20.8827 17.659 21.2417 17.659C21.6007 17.659 21.8917 17.95 21.8917 18.309L21.8917 19.0001C21.8917 20.657 20.5486 22.0001 18.8917 22.0001L18.3089 22.0001C17.9499 22.0001 17.6589 21.7091 17.6589 21.3501C17.6589 20.9911 17.9499 20.7001 18.3089 20.7001L18.8917 20.7001C19.8306 20.7001 20.5917 19.939 20.5917 19.0001L20.5917 18.309Z"/></svg>

<svg xmlns="http://www.w3.org/2000/svg" fill="none" viewBox="0 0 24 24" focusable="false"><path fill="#74767B" fill-rule="evenodd" d="M4.89 2h.8c.35 0 .65.29.65.65 0 .35-.3.65-.65.65h-.8c-.94 0-1.7.76-1.7 1.7v.69c0 .36-.29.65-.65.65s-.65-.29-.65-.65V5c0-1.66 1.34-3 3-3m17 3.69c0 .36-.29.65-.65.65s-.65-.29-.65-.65V5c0-.94-.76-1.7-1.7-1.7h-.59c-.35 0-.65-.3-.65-.65 0-.36.3-.65.65-.65h.59c1.65 0 3 1.34 3 3zM7.5 8c.35 0 .65.29.65.65v1.75a.655.655 0 0 1-1.31 0V8.65c0-.36.3-.65.66-.65M12 8c.35 0 .65.29.65.65v3.15c0 1.23-.99 2.22-2.23 2.22h-.08c-.36 0-.66-.29-.66-.65s.3-.65.66-.65h.08c.52 0 .93-.41.93-.92V8.65c0-.36.29-.65.65-.65m4.5 0c.35 0 .65.29.65.65v1.75c0 .36-.3.65-.65.65-.36 0-.65-.29-.65-.65V8.65c0-.36.29-.65.65-.65m-.52 7.25c.13.13.2.31.2.48 0 .16-.05.32-.17.44-.8.86-2.2 1.4-3.63 1.49-1.44.08-3.04-.3-4.21-1.47a.64.64 0 0 1-.19-.46c0-.17.06-.33.19-.46.26-.25.67-.25.92 0 .84.84 2.04 1.16 3.22 1.09 1.2-.07 2.24-.53 2.75-1.08.25-.26.66-.27.92-.03M1.89 18.3c0-.35.29-.65.65-.65s.65.3.65.65v.7c0 .93.76 1.7 1.7 1.7h.8c.35 0 .65.29.65.65 0 .35-.3.65-.65.65h-.8c-1.66 0-3-1.35-3-3zm18.7 0c0-.35.29-.65.65-.65s.65.3.65.65v.7c0 1.65-1.35 3-3 3h-.59c-.35 0-.65-.3-.65-.65 0-.36.3-.65.65-.65h.59c.94 0 1.7-.77 1.7-1.7z"/></svg>
